app/[lang]/(home)/(new-home)/assets/aiagent-appicons/dify.svg

<svg width="16" height="16" viewBox="0 0 16 16" fill="none" xmlns="http://www.w3.org/2000/svg">
<path d="M5.23636 2.95966C6.22771 2.95966 6.59374 2.35212 6.59374 1.60227C6.59374 0.852415 6.22698 0.244873 5.23636 0.244873C4.24567 0.244873 3.87891 0.852415 3.87891 1.60227C3.87891 2.35212 4.24567 2.95966 5.23636 2.95966Z" fill="#1734FC"/>
<path d="M9.98784 3.25043V4.12343H7.75744V6.06306H9.98784V10.9118H6.30289V4.12412H1.45416V6.06374H4.16965V10.9125H0.969727V12.8521H15.5152V10.9125H12.1211V6.06374H15.5152V4.12412H12.1211V2.18449H15.5152V0.244873H12.994C11.3363 0.244873 9.98784 1.59269 9.98784 3.25043Z" fill="#1734FC"/>
</svg>

<svg xmlns="http://www.w3.org/2000/svg" fill="none" viewBox="0 0 16 16">
  <path
    fill="#1734FC"
    d="M5.24 2.96c.99 0 1.35-.6 1.35-1.36C6.6.85 6.23.24 5.24.24c-1 0-1.36.61-1.36 1.36 0 .75.37 1.36 1.36 1.36Z"
  />
  <path
    fill="#1734FC"
    d="M9.99 3.25v.87H7.76v1.94h2.23v4.85H6.3V4.12H1.45v1.94h2.72v4.85H.97v1.94h14.55v-1.94h-3.4V6.06h3.4V4.12h-3.4V2.18h3.4V.24h-2.53a3 3 0 0 0-3 3.01Z"
  />
</svg>
